X:22
T:Down with the French
R:Jig
M:6/8
L:1/8
K:D
a2f a2f | ded f3 | a2f a2f | efd cBA | 
a2f a2f | ded f3 | egf edc | d3 d3 :|
 |:e2e f2d | cdB A3 | dAd fdf | a2f d3 | 
e2e f2d | cdB A3 | Bcd edc | d3 d3 :|
%%vskip 1.5cm
